app/dist/common/images/capstar-financial-holdings.svg

<svg height="18" viewBox="0 0 18 18" width="18" xmlns="http://www.w3.org/2000/svg"><path d="m0 0h18v18h-18z" fill="#f0f3fa"/><path d="m10.42 7-1.42-4-1.42 4h-4.58l1.2 1h6c.17 0 .3.07.3.22 0 .16-.13.28-.3.28h-5.5l.72.5h3.28c.17 0 .3.17.3.32 0 .16-.13.28-.3.28h-2.3l.3.2-.11.35h.91c.17 0 .3.12.3.28 0 .15-.13.27-.3.27h-1.1l-1.1 3.3 3.7-2.6 3.7 2.6-1.4-4.2 3.7-2.8z" fill="#b6a168"/></svg>

<!-- by TradingView --><svg width="18" height="18" viewBox="0 0 18 18" xmlns="http://www.w3.org/2000/svg"><path fill="#F0F3FA" d="M0 0h18v18H0z"/><path d="M10.42 7 9 3 7.58 7H3l1.2 1h6c.17 0 .3.07.3.22 0 .16-.13.28-.3.28H4.7l.72.5H8.7c.17 0 .3.17.3.32 0 .16-.13.28-.3.28H6.4l.3.2-.11.35h.91c.17 0 .3.12.3.28 0 .15-.13.27-.3.27H6.4L5.3 14 9 11.4l3.7 2.6-1.4-4.2L15 7h-4.58Z" fill="#B6A168"/></svg>
